X: 530
T: Shuzhuang tai
L: 1/8
M: 2/4
K: F
F2D C [I:setbarnb 1]| 
F2F2 | 
c d c A | 
G FG2 | 
G Ac2 | 
d c A G | 
F A F D | 
C4 | 
A GF2 | 
G Ac2 | 
G A G F | 
D CD2 | 
G Ac2 | 
f d c c | 
F F F A | 
G2F D | 
C4 |]

@@@ Tune index: 9404
